_includes/svgs/twitter-logo.svg

<svg width="40px" height="40px" viewBox="0 0 60 60" version="1.1" xmlns="http://www.w3.org/2000/svg" xmlns:xlink="http://www.w3.org/1999/xlink" xmlns:sketch="http://www.bohemiancoding.com/sketch/ns">
  <path d="M0,30 C0,13.4314567 13.4508663,0 30.0433526,0 C46.6358389,0 60.0867052,13.4314567 60.0867052,30 C60.0867052,46.5685433 46.6358389,60 30.0433526,60 C13.4508663,60 0,46.5685433 0,30 Z M0,30" fill="#4099FF" sketch:type="MSShapeGroup"></path>
  <path d="M29.2997675,23.8879776 L29.3627206,24.9260453 L28.3135016,24.798935 C24.4943445,24.3116787 21.1578281,22.6592444 18.3249368,19.8840023 L16.9399677,18.5069737 L16.5832333,19.5238563 C15.8277956,21.7906572 16.3104363,24.1845684 17.8842648,25.7946325 C18.72364,26.6844048 18.5347806,26.8115152 17.0868584,26.2818888 C16.5832333,26.1124083 16.1425613,25.985298 16.1005925,26.0488532 C15.9537019,26.1971486 16.457327,28.1249885 16.8560302,28.8876505 C17.4016241,29.9469033 18.5137962,30.9849709 19.7308902,31.5993375 L20.7591248,32.0865938 L19.5420308,32.1077788 C18.3669055,32.1077788 18.3249368,32.1289639 18.4508431,32.57385 C18.8705307,33.9508786 20.5282967,35.4126474 22.3749221,36.048199 L23.6759536,36.4930852 L22.5427971,37.1710069 C20.8640467,38.1455194 18.891515,38.6963309 16.9189833,38.738701 C15.9746862,38.759886 15.1982642,38.8446262 15.1982642,38.9081814 C15.1982642,39.1200319 17.7583585,40.306395 19.2482495,40.7724662 C23.7179224,42.1494948 29.0269705,41.5563132 33.0140027,39.2047722 C35.846894,37.5311528 38.6797853,34.2050993 40.0018012,30.9849709 C40.7152701,29.2689815 41.428739,26.1335934 41.428739,24.6294545 C41.428739,23.654942 41.4916922,23.5278317 42.6668174,22.3626537 C43.359302,21.6847319 44.0098178,20.943255 44.135724,20.7314044 C44.3455678,20.3288884 44.3245835,20.3288884 43.2543801,20.6890343 C41.4707078,21.324586 41.2188952,21.2398458 42.1002392,20.2865183 C42.750755,19.6085965 43.527177,18.3798634 43.527177,18.0197174 C43.527177,17.9561623 43.2124113,18.0620876 42.8556769,18.252753 C42.477958,18.4646036 41.6385828,18.7823794 41.0090514,18.9730449 L39.8758949,19.3331908 L38.8476603,18.634084 C38.281082,18.252753 37.4836756,17.829052 37.063988,17.7019416 C35.9937846,17.4053509 34.357003,17.447721 33.3917215,17.7866818 C30.768674,18.7400093 29.110908,21.1974757 29.2997675,23.8879776 Z M29.2997675,23.8879776" id="Path" fill="#FFFFFF" sketch:type="MSShapeGroup"></path>
  <path d="M60.0867052,30 C60.0867052,46.5685433 46.6358389,60 30.0433526,60 C23.8895925,60 18.1679598,58.1525134 13.4044895,54.9827754 L47.8290478,5.81941103 C55.2628108,11.2806503 60.0867052,20.0777973 60.0867052,30 Z M60.0867052,30" id="reflec" fill-opacity="0.08" fill="#000000" sketch:type="MSShapeGroup"></path>
</svg>

<svg width="40" height="40" viewBox="0 0 60 60" xmlns="http://www.w3.org/2000/svg"><path d="M0 30C0 13.43 13.45 0 30.043 0s30.044 13.43 30.044 30-13.45 30-30.044 30C13.45 60 0 46.57 0 30zm0 0" fill="#4099FF"/><path d="M29.3 23.888l.063 1.038-1.05-.127c-3.82-.488-7.155-2.14-9.988-4.916l-1.385-1.377-.357 1.017c-.755 2.267-.273 4.66 1.3 6.27.84.89.652 1.018-.796.488-.504-.17-.944-.297-.986-.233-.146.147.357 2.075.756 2.838.546 1.06 1.658 2.097 2.875 2.71l1.03.49-1.218.02c-1.175 0-1.217.02-1.09.466.42 1.377 2.076 2.84 3.923 3.474l1.3.445-1.132.678c-1.68.976-3.65 1.526-5.624 1.57-.945.02-1.722.105-1.722.168 0 .212 2.56 1.398 4.05 1.864 4.47 1.377 9.78.784 13.766-1.567 2.833-1.674 5.666-5 6.988-8.22.713-1.716 1.427-4.85 1.427-6.356 0-.975.062-1.102 1.237-2.267.692-.678 1.343-1.42 1.47-1.632.21-.4.188-.4-.883-.04-1.783.635-2.035.55-1.154-.403.65-.678 1.427-1.907 1.427-2.267 0-.064-.315.042-.67.233-.38.212-1.218.53-1.848.72l-1.134.36-1.028-.7c-.567-.38-1.364-.804-1.784-.93-1.07-.298-2.707-.255-3.672.084-2.623.953-4.28 3.41-4.092 6.1zm0 0" fill="#fff"/><path d="M60.087 30c0 16.57-13.45 30-30.044 30-6.153 0-11.875-1.847-16.64-5.017L47.83 5.82C55.262 11.28 60.086 20.077 60.086 30zm0 0" fill-opacity=".08"/></svg>
